icons/npm.svg

<?xml version="1.0" encoding="UTF-8"?>
<svg xmlns="http://www.w3.org/2000/svg" xmlns:xlink="http://www.w3.org/1999/xlink" width="32pt" height="32pt" viewBox="0 0 32 32" version="1.0">
    <g id="surface1">
        <path style=" stroke:none;fill-rule:nonzero;fill:rgb(79.607843%,21.960784%,21.568627%);fill-opacity:1;" d="M 0.5 9.625 L 31.5 9.625 L 31.5 20.550781 L 16 20.550781 L 16 22.375 L 9.109375 22.375 L 9.109375 20.550781 L 0.5 20.550781 Z M 2.222656 18.734375 L 5.667969 18.734375 L 5.667969 13.265625 L 7.390625 13.265625 L 7.390625 18.734375 L 9.113281 18.734375 L 9.113281 11.449219 L 2.222656 11.449219 Z M 10.832031 11.449219 L 10.832031 20.550781 L 14.277344 20.550781 L 14.277344 18.734375 L 17.722656 18.734375 L 17.722656 11.449219 Z M 14.277344 13.269531 L 16 13.269531 L 16 16.910156 L 14.277344 16.910156 Z M 19.445312 11.449219 L 19.445312 18.734375 L 22.890625 18.734375 L 22.890625 13.265625 L 24.613281 13.265625 L 24.613281 18.734375 L 26.335938 18.734375 L 26.335938 13.265625 L 28.058594 13.265625 L 28.058594 18.734375 L 29.78125 18.734375 L 29.78125 11.449219 Z M 19.445312 11.449219 " />
    </g>
</svg>

<?xml version="1.0" encoding="UTF-8"?>
<svg width="32pt" height="32pt" version="1.0" viewBox="0 0 32 32" xmlns="http://www.w3.org/2000/svg">
    <path
        d="m0.5 9.625h31v10.926h-15.5v1.8242h-6.8906v-1.8242h-8.6094zm1.7227 9.1094h3.4453v-5.4688h1.7227v5.4688h1.7227v-7.2852h-6.8906zm8.6094-7.2852v9.1016h3.4453v-1.8164h3.4453v-7.2852zm3.4453 1.8203h1.7227v3.6406h-1.7227zm5.168-1.8203v7.2852h3.4453v-5.4688h1.7227v5.4688h1.7227v-5.4688h1.7227v5.4688h1.7227v-7.2852z"
        fill="#ca3736" />
</svg>
